X: 145
T: La Bagatelle
%R: jig
B: Chas & Sam Thompson "Twenty Four Country Dances for the Year 1782", London 1782, p.73 #1
F: http://www.vwml.org/browse/browse-collections-dance-tune-books/browse-thompsons1782
Z: 2014 John Chambers <jc:trillian.mit.edu> (added dance description)
M: 6/8
L: 1/8
K: D
% - - - - - - - - - - - - - - - - - - - - - - - - - - - - -
A |\
def efd | cdB A2A |\
Bcd A2d | dec d2 :: F |\
FEF G2G | GFG A2A |
ABc dcB | AGF E2F |\
FEF G2G | GFG A2A |\
Bcd A2d | dec d2 :|
% - - - - - - - - - - Dance description - - - - - - - - - -
%%begintext align
%% The 1st Cu: set to the 2d Lady .|. then to the 2d
%% Gent: :|. lead down the middle up again and cast
%% of .|: Allmand with the right and left :|:
%%endtext

%%sep 1 1 500
%%sep 1 1 500
